www/static/icons/react.svg

<svg width="50" height="50" viewBox="0 0 50 50" fill="none" xmlns="http://www.w3.org/2000/svg">
<rect width="50" height="50" rx="6" fill="#ECFBFF"/>
<path fill-rule="evenodd" clip-rule="evenodd" d="M36.0143 18.5547C40.8475 20.0359 44 22.4245 44 24.9449C44 27.4576 40.863 29.8461 36.0607 31.3273C37.1839 36.2441 36.6959 40.1604 34.5194 41.4167C34.0082 41.7114 33.4195 41.851 32.7689 41.851C30.6388 41.851 27.8504 40.3465 25.031 37.7253C22.2116 40.362 19.4232 41.882 17.2931 41.882C16.6425 41.882 16.0538 41.7424 15.5503 41.4478C13.3661 40.1914 12.8704 36.2673 13.9857 31.3351C9.15247 29.8539 6 27.4653 6 24.9449C6 22.4322 9.13697 20.0514 13.9547 18.5624C12.8316 13.6457 13.3196 9.72939 15.4961 8.47306C16.0073 8.17837 16.596 8.03878 17.2466 8.03878V8.03102C19.3767 8.03102 22.1651 9.53551 24.9845 12.1567C27.8039 9.52 30.5923 8 32.7224 8V8.00776C33.3622 8.00888 33.9482 8.14853 34.4497 8.44204C36.6339 9.69837 37.1296 13.6224 36.0143 18.5547ZM32.7146 9.7294C31.1037 9.73352 28.7371 11.0205 26.2161 13.3665C27.3082 14.5065 28.3926 15.8094 29.4382 17.2441C31.181 17.4302 32.8386 17.7171 34.3567 18.0894C34.5271 17.3061 34.6665 16.5384 34.7517 15.8094C35.108 12.8469 34.651 10.5437 33.5976 9.93878C33.3575 9.80694 33.0709 9.73714 32.7146 9.73714V9.7294ZM23.753 13.3743C21.2279 11.04 18.85 9.76041 17.2466 9.76041V9.76816C16.8903 9.76816 16.5883 9.8302 16.3559 9.9698C15.3102 10.5824 14.861 12.8857 15.225 15.8482C15.318 16.5694 15.4497 17.3216 15.6278 18.0971C17.1459 17.7171 18.8035 17.4302 20.554 17.2441C21.5842 15.8094 22.6686 14.5143 23.753 13.3743ZM32.8695 22.8355C33.2723 21.8041 33.6286 20.7727 33.9152 19.7722C32.9005 19.5241 31.8394 19.3224 30.7395 19.1596C31.119 19.749 31.4986 20.3539 31.8549 20.9743C32.2189 21.5947 32.552 22.2151 32.8695 22.8355ZM28.501 30.9939C29.1439 30.071 29.7636 29.0784 30.3677 28.0314C30.9486 27.0155 31.4831 25.9763 31.9711 24.9371C31.4831 23.898 30.9486 22.8665 30.36 21.8506C29.7558 20.8114 29.1284 19.8265 28.4855 18.9037C27.3392 18.8106 26.1696 18.7563 25 18.7563C23.8227 18.7563 22.6531 18.8106 21.499 18.9114C20.8561 19.8343 20.2364 20.8269 19.6323 21.8739C19.0514 22.8898 18.5092 23.929 18.0289 24.9682C18.5169 26.0073 19.0514 27.0388 19.64 28.0547C20.2442 29.0939 20.8716 30.0788 21.5145 31.0016C22.6608 31.0947 23.8304 31.149 25 31.149C26.1773 31.149 27.3469 31.0947 28.501 30.9939ZM33.9384 30.1098C33.6441 29.1016 33.2878 28.0624 32.8695 27.0233C32.552 27.6437 32.2189 28.2718 31.8626 28.8922C31.5063 29.5204 31.1268 30.1331 30.7472 30.7302C31.8549 30.5673 32.9238 30.358 33.9384 30.1098ZM22.8622 32.8163C23.5748 33.7237 24.2952 34.5535 25.0155 35.298C25.7281 34.5535 26.4484 33.7237 27.1455 32.8163C26.4407 32.8551 25.7203 32.8706 24.9923 32.8706C24.2719 32.8706 23.5593 32.8473 22.8622 32.8163ZM16.077 30.1176C17.0917 30.3657 18.1529 30.5673 19.2528 30.7302C18.8732 30.1408 18.5014 29.5359 18.1374 28.9155C17.7733 28.2951 17.4403 27.6747 17.1227 27.0543C16.7199 28.0857 16.3636 29.1171 16.077 30.1176ZM27.13 17.0735C26.4174 16.1661 25.6971 15.3363 24.9768 14.5918C24.2642 15.3363 23.5438 16.1661 22.8467 17.0735C23.5516 17.0347 24.2719 17.0192 25 17.0192C25.7203 17.0192 26.4329 17.0424 27.13 17.0735ZM18.1296 20.9976C18.4859 20.3694 18.8655 19.7567 19.245 19.1596C18.1374 19.3224 17.0685 19.5318 16.0538 19.7722C16.3481 20.7804 16.7044 21.8196 17.1227 22.8588C17.4403 22.2384 17.7733 21.618 18.1296 20.9976ZM7.71953 24.9449C7.71953 26.1624 9.49327 27.698 12.2352 28.869C12.9091 29.1559 13.6372 29.4196 14.404 29.66C14.8378 28.1478 15.4109 26.5735 16.1235 24.9604C15.4032 23.3396 14.8223 21.7576 14.3808 20.2376C13.6294 20.478 12.9013 20.7339 12.2352 21.0208C9.49327 22.1841 7.71953 23.7273 7.71953 24.9449ZM15.2483 34.0804C14.892 37.0429 15.349 39.3461 16.4024 39.951C16.6347 40.0829 16.9291 40.1527 17.2776 40.1604C18.8887 40.1604 21.2589 38.8731 23.7839 36.5233C22.6918 35.3833 21.6074 34.0804 20.5618 32.6457C18.819 32.4596 17.1614 32.1727 15.6433 31.8004C15.4729 32.5837 15.3335 33.3514 15.2483 34.0804ZM33.6441 39.92C34.6898 39.3073 35.139 37.0041 34.775 34.0416C34.6898 33.3204 34.5503 32.5682 34.3722 31.7849C32.8541 32.1649 31.1965 32.4518 29.446 32.638C28.4158 34.0727 27.3314 35.3678 26.247 36.5078C28.7721 38.842 31.15 40.1216 32.7534 40.1216C33.1097 40.1216 33.4117 40.0596 33.6441 39.92ZM35.6115 29.6522C36.3628 29.4118 37.0909 29.1559 37.757 28.869C40.499 27.7057 42.2727 26.1624 42.2805 24.9449C42.2805 23.7273 40.5067 22.1918 37.7648 21.0208C37.0832 20.7339 36.3551 20.4702 35.5883 20.2298C35.1545 21.742 34.5813 23.3163 33.8687 24.9294C34.5891 26.5502 35.17 28.1322 35.6115 29.6522ZM28.532 24.9449C28.532 26.9022 26.9472 28.489 24.9923 28.489C23.0373 28.489 21.4525 26.9022 21.4525 24.9449C21.4525 22.9876 23.0373 21.4008 24.9923 21.4008C26.9472 21.4008 28.532 22.9876 28.532 24.9449Z" fill="#61DAFB"/>
</svg>

<svg width="50" height="50" fill="none" xmlns="http://www.w3.org/2000/svg"><rect width="50" height="50" rx="6" fill="#ECFBFF"/><path fill-rule="evenodd" clip-rule="evenodd" d="M36.014 18.555c4.833 1.48 7.986 3.87 7.986 6.39 0 2.513-3.137 4.901-7.94 6.382 1.124 4.917.636 8.833-1.54 10.09-.512.294-1.1.434-1.751.434-2.13 0-4.919-1.505-7.738-4.126-2.82 2.637-5.608 4.157-7.738 4.157-.65 0-1.24-.14-1.743-.434-2.184-1.257-2.68-5.18-1.564-10.113C9.152 29.854 6 27.465 6 24.945c0-2.513 3.137-4.894 7.955-6.383-1.123-4.916-.635-8.833 1.541-10.089.511-.295 1.1-.434 1.75-.434V8.03c2.13 0 4.92 1.505 7.739 4.126C27.803 9.52 30.591 8 32.721 8v.008c.64 0 1.226.14 1.728.434 2.184 1.256 2.68 5.18 1.564 10.113zm-3.3-8.826c-1.61.005-3.977 1.292-6.498 3.638a37.815 37.815 0 013.222 3.877c1.743.186 3.4.473 4.919.845.17-.783.31-1.55.395-2.28.356-2.962-.101-5.265-1.154-5.87-.24-.132-.527-.202-.883-.202V9.73zm-8.961 3.645C21.228 11.04 18.85 9.76 17.247 9.76v.008c-.357 0-.659.062-.891.202-1.046.612-1.495 2.916-1.131 5.878.093.721.225 1.474.403 2.25a36.126 36.126 0 014.926-.854 36.62 36.62 0 013.199-3.87zm9.117 9.461a34.94 34.94 0 001.045-3.063 34.915 34.915 0 00-3.175-.612c.379.589.759 1.194 1.115 1.814.364.62.697 1.241 1.015 1.861zM28.5 30.995a41.294 41.294 0 003.47-6.057 40.458 40.458 0 00-1.611-3.086 42.749 42.749 0 00-1.875-2.947 40.26 40.26 0 00-6.986.008 41.294 41.294 0 00-3.47 6.056 40.458 40.458 0 001.611 3.087 42.749 42.749 0 001.875 2.947 40.26 40.26 0 006.986-.008zm5.437-.884a33.23 33.23 0 00-1.069-3.087c-.317.62-.65 1.249-1.006 1.87-.357.627-.736 1.24-1.116 1.837a34.717 34.717 0 003.191-.62zm-11.076 2.706a31.964 31.964 0 002.154 2.482 30.252 30.252 0 002.13-2.482c-.705.04-1.426.055-2.154.055-.72 0-1.433-.024-2.13-.055zm-6.785-2.698c1.015.248 2.076.45 3.176.612-.38-.59-.752-1.194-1.116-1.814-.364-.62-.697-1.241-1.014-1.862a34.94 34.94 0 00-1.046 3.064zM27.13 17.074a31.963 31.963 0 00-2.153-2.482 30.253 30.253 0 00-2.13 2.481A39.285 39.285 0 0125 17.02c.72 0 1.433.023 2.13.055zm-9 3.924c.356-.629.736-1.241 1.115-1.838a37.56 37.56 0 00-3.191.612c.294 1.008.65 2.048 1.069 3.087.317-.62.65-1.241 1.007-1.861zM7.72 24.945c0 1.217 1.773 2.753 4.515 3.924.674.287 1.402.55 2.169.791a36.761 36.761 0 011.72-4.7 37.28 37.28 0 01-1.743-4.722c-.752.24-1.48.496-2.146.783-2.742 1.163-4.515 2.706-4.515 3.924zm7.528 9.135c-.356 2.963.101 5.266 1.154 5.871.233.132.527.202.876.21 1.61 0 3.98-1.288 6.506-3.638a37.815 37.815 0 01-3.222-3.877 37.48 37.48 0 01-4.919-.846c-.17.784-.31 1.551-.395 2.28zm18.396 5.84c1.046-.613 1.495-2.916 1.131-5.878a21.75 21.75 0 00-.403-2.257 36.14 36.14 0 01-4.926.853 36.62 36.62 0 01-3.199 3.87c2.525 2.334 4.903 3.614 6.506 3.614.357 0 .659-.062.891-.202zm1.968-10.268c.75-.24 1.479-.496 2.145-.783 2.742-1.163 4.516-2.707 4.524-3.924 0-1.218-1.774-2.753-4.516-3.924-.682-.287-1.41-.55-2.177-.791a36.762 36.762 0 01-1.72 4.7 37.266 37.266 0 011.743 4.722zm-7.08-4.707a3.542 3.542 0 01-3.54 3.544 3.542 3.542 0 01-3.54-3.544 3.542 3.542 0 013.54-3.544 3.542 3.542 0 013.54 3.544z" fill="#61DAFB"/></svg>
